X: 531
M: 3/4
L: 1/8
K: Am
|:\
a2 efed | c2 A2 B2 | c2AB cd | edefge |\
a2 efef | g2 dede | f2 c2 d2 | e6 :|
|:\
d2 dede | f2 edcB | cd B3 A | A6 :|

